packages/calcite-ui-icons/icons/user-risk-24.svg

<?xml version="1.0" encoding="UTF-8"?><svg id="icons" xmlns="http://www.w3.org/2000/svg" viewBox="0 0 24 24"><defs><style>.cls-1{fill:none;}</style></defs><rect class="cls-1" width="24" height="24"/><path d="M11,1.20001c-2.64685,0-4.79999,2.15308-4.79999,4.79999s2.15314,4.79999,4.79999,4.79999,4.79999-2.15314,4.79999-4.79999S13.64685,1.20001,11,1.20001ZM11,9.7998c-2.09521,0-3.7998-1.70459-3.7998-3.7998s1.70459-3.7998,3.7998-3.7998,3.7998,1.70459,3.7998,3.7998-1.70459,3.7998-3.7998,3.7998ZM8.5,12.009c-3.03003,0-5.491,2.46997-5.491,5.5l-.009,4.491h6.34003c0-.34003.06-.67999.17999-1h-5.52002v-3.5c0-2.48004,2.02002-4.5,4.5-4.5,5.2173,0,5.16195-.02328,5.33002-.00799l.51996-.913c-.56308-.10066-.53894-.07001-5.84998-.07001ZM22.65771,23h-10.31543c-.75803,0-1.24146-.81458-.87744-1.47949l5.15723-9.45508c.35059-.64258,1.40527-.64258,1.75586,0l5.15771,9.45605c.36296.66279-.11906,1.47852-.87793,1.47852ZM12.34229,22h10.31543l-5.15771-9.45605-5.15771,9.45605ZM18,19h-1v-3h1v3ZM18,21h-1v-1h1v1Z"/></svg>

<svg xmlns="http://www.w3.org/2000/svg" viewBox="0 0 24 24"><path fill="none" d="M0 0h24v24H0z"/><path d="M11 1.2C8.353 1.2 6.2 3.353 6.2 6s2.153 4.8 4.8 4.8 4.8-2.153 4.8-4.8-2.153-4.8-4.8-4.8zm0 8.6C8.905 9.8 7.2 8.095 7.2 6S8.905 2.2 11 2.2s3.8 1.705 3.8 3.8-1.705 3.8-3.8 3.8zm-2.5 2.209c-3.03 0-5.491 2.47-5.491 5.5L3 22h6.34c0-.34.06-.68.18-1H4v-3.5C4 15.02 6.02 13 8.5 13c5.217 0 5.162-.023 5.33-.008l.52-.913c-.563-.1-.539-.07-5.85-.07zM22.658 23H12.342a1 1 0 0 1-.877-1.48l5.157-9.455c.35-.642 1.405-.642 1.756 0l5.158 9.456A1 1 0 0 1 22.658 23zm-10.316-1h10.316L17.5 12.544 12.342 22zM18 19h-1v-3h1v3zm0 2h-1v-1h1v1z"/></svg>
